X:1044
T:The Humors of Dingle
R:double jig
N:"collected by Stack"
B:O'Neill's 1044
Z:Transcribed by henrik.norbeck@mailbox.swipnet.se
M:6/8
L:1/8
K:Amix
3A/B/c/|dAF "~"FEF|DEF FEF|AFD TE2 D|EFD EFA|
dAF TFEF|DFA d2 e|fed edcd|BAG A2:|
A|cee cee|"~"cBc ABc|"~"dcd fdf|agf ecA|
cee cee|cBA "~"dcd|fed cdB|BAG A2:|
